X: 4051
T: Miss Forbes' Farewell
C: by Mr Isaac Couper of Banff
%R: reel, march
B: Niel Gow & Sons "Complete Repository" v.4 p.5 #1 (top 2 staves continued from p.4)
Z: 2021 John Chambers <jc:trillian.mit.edu>
N: Some double-bar lines were added to clarify the phrasing, mostly for
N: proofreading, but then kept because it made the music easier to read.
M: C
L: 1/8
Q: "SLOW"
K: Eb
% - - - - - - - - - -
% Voice 1 reformatted for 3 8-bar lines, to fit the music on 3 lines for assorted software.
% (The books has it on 3 lines, but some available formatters didn't accept it as published.)
V: 1 staves=2
TE>F \
| G3B (AG)(FE) | G2B2 c2{d}e2 | B3c (BG)TF>E | {EF}G2[F2D2] [F2D2]EF |\
| ~G3B (AG)(FE) | G2B2 c2{d}e2 | ~B3c (B<G)TF>E | {EF}G2[E2B,2G,2] [E2B,2G,2] :| (B/c/d) |
| (ed)(ef) (ed)(cB) | (cde).c ~B3_A | .G(BcB) (AG)TF>E | {ED}[G2E2][F2D2] [F3D3]~d |\
| (ed)(ef) edcB | c=Bcd {d}e3c | B3c (BG) TF>E | {EF}G2[E2B,2G,2] [E2B,2G,2] ||
(B/c/d) \
| (ed)(ef) (ed)(cB) | (cde).c ~B3_A | (GB)(cB) (AG)(TF>E) | {EF}G2[F2D2] [F2D2]TE>F |\
| ~G3B (AG)(FE) | G2B2 c2{d}e2 | ~B3c (B<G)(TF>E) | {EF}G2[E2B,2G,2] [E2B,2G,2] |]
% - - - - - - - - - -
V: 2 clef=bass middle=d
"LEGATO"z2 \
| E2e2 (c'b)(ag) | e2g2 a4 | g2a2 g2=a2 | b2B2 bagf |\
| (ebe'd') (c'b)(ag) |e2g2 a2A2 | G2A2 B2B,2 | (EG) (Be) E2 :| a2 |
| (gf)(gd) (eb)(ag) | a4 [g2e2][f2d2] | e2AG (FGA).=A | B2B,2 B3a |\
| (gf)(gd) ebag | agaf efga | g2a2 b2B2 | (EB) (Be) E2 ||
a2 \
| (gf)(gd) (eb)(ag) | abc'a g2[f2d2] | e2AG FGA=A | B2B,2 (ba)(gf) |\
| (ebe'd') (c'b)(ag) | e2g2 a2A2 | G2A2 B2B,2 | (EG) (Be) E2 |]


